lib/flags/s/SGP.svg

<svg xmlns="http://www.w3.org/2000/svg" fill="none" viewBox="0 0 16 12"><mask id="SGP_svg__a" width="16" height="12" x="0" y="0" mask-type="alpha" maskUnits="userSpaceOnUse"><path fill="#fff" d="M0 0H16V12H0z"/></mask><g mask="url(#SGP_svg__a)"><path fill="#F7FCFF" fill-rule="evenodd" d="M0 0V12H16V0H0Z" clip-rule="evenodd"/><mask id="SGP_svg__b" width="16" height="12" x="0" y="0" mask-type="alpha" maskUnits="userSpaceOnUse"><path fill="#fff" fill-rule="evenodd" d="M0 0V12H16V0H0Z" clip-rule="evenodd"/></mask><g fill-rule="evenodd" clip-rule="evenodd" mask="url(#SGP_svg__b)"><path fill="#E31D1C" d="M0 0V6H16V0H0Z"/><path fill="#F1F9FF" d="M4.4342 5.29478C4.4342 5.29478 3.02136 4.72653 3.02136 3.187C3.02136 1.64746 4.4342 1.09757 4.4342 1.09757C3.74753 0.923736 1.92548 1.07922 1.92548 3.187C1.92548 5.29478 3.72 5.69228 4.4342 5.29478ZM4.79619 5.0403L5.2015 4.79562L5.61574 5.0403L5.51436 4.56282L5.85111 4.18615H5.39486L5.2015 3.7403L5.00814 4.18615L4.55111 4.20548L4.88864 4.56282L4.79619 5.0403ZM6.67465 4.76829L6.26934 5.01298L6.36179 4.5355L6.02426 4.17815L6.48129 4.15883L6.67465 3.71298L6.86801 4.15883H7.32426L6.98751 4.5355L7.08889 5.01298L6.67465 4.76829ZM5.64358 2.88493L6.04889 2.64024L6.46313 2.88493L6.36175 2.40744L6.6985 2.03077H6.24225L6.04889 1.58493L5.85553 2.03077L5.3985 2.0501L5.73602 2.40744L5.64358 2.88493ZM4.68489 3.61132L4.27958 3.85601L4.37203 3.37853L4.0345 3.02118L4.49153 3.00186L4.68489 2.55601L4.87825 3.00186H5.3345L4.99776 3.37853L5.09914 3.85601L4.68489 3.61132ZM6.95879 3.83408L7.3641 3.58939L7.77834 3.83408L7.67696 3.3566L8.01371 2.97993H7.55746L7.3641 2.53408L7.17074 2.97993L6.71371 2.99925L7.05124 3.3566L6.95879 3.83408Z"/></g></g></svg>

<svg xmlns="http://www.w3.org/2000/svg" fill="none" viewBox="0 0 16 12"><mask id="SGP_svg__a" width="16" height="12" x="0" y="0" maskUnits="userSpaceOnUse"><path fill="#fff" d="M0 0h16v12H0z"/></mask><g mask="url(#SGP_svg__a)"><path fill="#F7FCFF" fill-rule="evenodd" d="M0 0v12h16V0H0z" clip-rule="evenodd"/><mask id="SGP_svg__b" width="16" height="12" x="0" y="0" maskUnits="userSpaceOnUse"><path fill="#fff" fill-rule="evenodd" d="M0 0v12h16V0H0z" clip-rule="evenodd"/></mask><g fill-rule="evenodd" clip-rule="evenodd" mask="url(#SGP_svg__b)"><path fill="#E31D1C" d="M0 0v6h16V0H0z"/><path fill="#F1F9FF" d="M4.434 5.295s-1.413-.568-1.413-2.108 1.413-2.09 1.413-2.09c-.686-.173-2.509-.018-2.509 2.09 0 2.108 1.795 2.505 2.51 2.108zm.362-.255l.405-.244.415.244-.102-.477.337-.377h-.456l-.193-.446-.194.446-.457.02.338.357-.093.477zm1.879-.272l-.406.245.093-.477-.338-.358.457-.02.194-.445.193.446h.456l-.336.377.1.477-.413-.245zM5.644 2.885l.405-.245.414.245-.101-.478.337-.376h-.457l-.193-.446-.193.446-.457.02.337.356-.092.478zm-.96.726l-.404.245.092-.477-.337-.358.457-.02.193-.445.193.446h.457l-.337.377.101.477-.414-.245zm2.275.223l.405-.245.414.245-.101-.477.337-.377h-.457l-.193-.446-.193.446-.457.02.337.357-.092.477z"/></g></g></svg>
